X:2
T:Str\"omkarlspolskan
R:sl\"angpolska
H:efter Pelle Fors, via br\"oderna Hellstr\"om. Jfr #173
N:St\"amning AEAC#. o = flageolett
A:\"Osterg\"otland
Z:id:hn-sp-2
M:3/4
L:1/16
K:A
c2(3BcB A2B2 c2A2 | edcd e8 | c2{dc}Bc d2dB c2cA |
BcBG AGAE DCB,A, | c2(3BcB A2B2 c2A2 | edcd e8 |
c2{dc}Bc d2dB c2cA | BcBA G2A2 A4 :||: A3B cBAB c2A2 |
E2"+"[c2A2] "arco"[c2A2]"+"[A2E2] "arco"A2"+"[E2A,2] |
"arco"[E3A,3]B cBAB c2A2 | E2"+"[c2A2] "arco"[c2A2]"+"[A2E2] "arco"A2"+"[E2A,2] |
"arco"A2Bc dedB cdcA | BcBA G2A2 A4 :||: CEAE CEAE CEAE |
DFAF DFAF DFAF | CEAE CEAE CEAE | DFAF DFAF DFAF |
CEAE B,EAE A,2B=c | d=cBA G2A2 A4 :||: "o"c'4 "o"a4 "o"e4 |
"o"c'4 "o"a4 "o"e4 | "o"c'2"o"c'2 "o"a2"o"a2 "o"e4 |
"o"c'2"o"c'2 "o"a2"o"a2 "o"e4 | CEAE CEAE CEAE | DFAF DFAF DFAF |
CEAE CEAE CEAE | DFAF DFAF DFAF | CEAE B,EAE A,2B=c |
d=cBA G2A2 A4 :|
<end>
<start>
